X: 10
M:6/8
L:1/8
K:G
d2 d dcB|e2 f g3|d2 d dcB|e2 f gdB|
ded dcB|efe efg|dec BcA|G2 A BGE:|
|:GFG B2 d|AGA c2 e|GFG G2 A|B2 c BGE|

